svg/emoji_u1f4a0.svg

<?xml version="1.0" encoding="UTF-8"?>
<svg width="128" height="128" enable-background="new 0 0 128 128" xmlns="http://www.w3.org/2000/svg"><linearGradient id="a" x1="64" x2="64" y1="4.3333" y2="124.43" gradientUnits="userSpaceOnUse"><stop stop-color="#80D8FF" offset="0"/><stop stop-color="#36C1FF" offset=".5888"/><stop stop-color="#00B0FF" offset=".9954"/></linearGradient><path d="m76.41 44.85 10.22-10.22c3.12-3.12 3.12-8.19 0-11.31l-16.97-16.98c-3.12-3.12-8.19-3.12-11.31 0l-16.98 16.97c-3.12 3.12-3.12 8.19 0 11.31l10.22 10.22c1.17 1.17 2.92 1.49 4.44 0.83 2.44-1.07 5.13-1.67 7.97-1.67s5.53 0.6 7.97 1.67c1.51 0.67 3.27 0.34 4.44-0.82z" fill="url(#a)"/><linearGradient id="d" x1="102.99" x2="102.99" y1="4.3333" y2="124.43" gradientUnits="userSpaceOnUse"><stop stop-color="#80D8FF" offset="0"/><stop stop-color="#36C1FF" offset=".5888"/><stop stop-color="#00B0FF" offset=".9954"/></linearGradient><path d="m121.66 58.34-16.97-16.97c-3.12-3.12-8.19-3.12-11.31 0l-10.23 10.22c-1.17 1.17-1.49 2.92-0.83 4.44 1.08 2.44 1.68 5.13 1.68 7.97s-0.6 5.53-1.67 7.97c-0.66 1.51-0.34 3.27 0.83 4.44l10.22 10.22c3.12 3.12 8.19 3.12 11.31 0l16.97-16.97c3.12-3.13 3.12-8.19 0-11.32z" fill="url(#d)"/><linearGradient id="c" x1="25.007" x2="25.007" y1="4.3333" y2="124.43" gradientUnits="userSpaceOnUse"><stop stop-color="#80D8FF" offset="0"/><stop stop-color="#36C1FF" offset=".5888"/><stop stop-color="#00B0FF" offset=".9954"/></linearGradient><path d="m44.85 51.59-10.22-10.22c-3.12-3.12-8.19-3.12-11.31 0l-16.98 16.97c-3.12 3.12-3.12 8.19 0 11.31l16.97 16.97c3.12 3.12 8.19 3.12 11.31 0l10.22-10.22c1.17-1.17 1.49-2.92 0.83-4.44-1.07-2.43-1.67-5.12-1.67-7.96s0.6-5.53 1.67-7.97c0.67-1.51 0.34-3.27-0.82-4.44z" fill="url(#c)"/><path d="m51.59 83.15-10.22 10.22c-3.12 3.12-3.12 8.19 0 11.31l16.97 16.97c3.12 3.12 8.19 3.12 11.31 0l16.97-16.97c3.12-3.12 3.12-8.19 0-11.31l-10.21-10.22c-1.17-1.17-2.92-1.49-4.44-0.83-2.44 1.08-5.13 1.68-7.97 1.68s-5.53-0.6-7.97-1.67c-1.51-0.67-3.27-0.34-4.44 0.82z" fill="url(#a)"/><linearGradient id="b" x1="64" x2="64" y1="48.833" y2="81.844" gradientUnits="userSpaceOnUse"><stop stop-color="#42A5F5" offset="0"/><stop stop-color="#1976D2" offset="1"/></linearGradient><circle cx="64" cy="64" r="16" fill="url(#b)"/><g opacity=".2"><path d="m64 7c1.34 0 2.59 0.52 3.54 1.46l16.97 16.97c0.94 0.94 1.46 2.2 1.46 3.54s-0.52 2.59-1.46 3.54l-10.22 10.22c-0.19 0.19-0.43 0.29-0.7 0.29-0.14 0-0.28-0.03-0.41-0.09-2.91-1.28-6-1.93-9.18-1.93s-6.27 0.65-9.18 1.93c-0.13 0.06-0.27 0.09-0.41 0.09-0.26 0-0.51-0.1-0.7-0.29l-10.22-10.22c-1.95-1.95-1.95-5.12 0-7.07l16.97-16.98c0.95-0.94 2.2-1.46 3.54-1.46m0-3c-2.05 0-4.09 0.78-5.66 2.34l-16.97 16.97c-3.12 3.12-3.12 8.19 0 11.31l10.22 10.22c0.76 0.76 1.78 1.17 2.82 1.17 0.55 0 1.1-0.11 1.62-0.34 2.44-1.07 5.13-1.67 7.97-1.67s5.53 0.6 7.97 1.67c0.52 0.23 1.07 0.34 1.62 0.34 1.04 0 2.06-0.4 2.82-1.17l10.22-10.22c3.12-3.12 3.12-8.19 0-11.31l-16.97-16.97c-1.57-1.56-3.61-2.34-5.66-2.34z" fill="#424242"/></g><g opacity=".2"><path d="m99.03 42.03c1.34 0 2.59 0.52 3.54 1.46l16.97 16.97c0.94 0.94 1.46 2.2 1.46 3.54s-0.52 2.59-1.46 3.54l-16.97 16.97c-0.94 0.94-2.2 1.46-3.54 1.46s-2.59-0.52-3.54-1.46l-10.22-10.22c-0.29-0.29-0.37-0.73-0.2-1.11 1.28-2.91 1.93-6 1.93-9.18s-0.65-6.27-1.93-9.18c-0.17-0.38-0.09-0.82 0.2-1.11l10.22-10.22c0.95-0.94 2.2-1.46 3.54-1.46m0-3c-2.05 0-4.09 0.78-5.66 2.34l-10.22 10.22c-1.17 1.17-1.49 2.92-0.83 4.44 1.08 2.44 1.68 5.13 1.68 7.97s-0.6 5.53-1.67 7.97c-0.66 1.51-0.34 3.27 0.83 4.44l10.22 10.22c1.56 1.56 3.61 2.34 5.66 2.34s4.09-0.78 5.66-2.34l16.97-16.97c3.12-3.12 3.12-8.19 0-11.31l-16.97-16.97c-1.58-1.57-3.62-2.35-5.67-2.35z" fill="#424242"/></g><g opacity=".2"><path d="m28.97 42.03c1.34 0 2.59 0.52 3.54 1.46l10.22 10.22c0.29 0.29 0.37 0.73 0.2 1.11-1.28 2.91-1.93 6-1.93 9.18s0.65 6.27 1.93 9.18c0.17 0.38 0.09 0.82-0.2 1.11l-10.22 10.22c-0.94 0.94-2.2 1.46-3.54 1.46s-2.59-0.52-3.54-1.46l-16.97-16.97c-0.94-0.95-1.46-2.2-1.46-3.54s0.52-2.59 1.46-3.54l16.97-16.97c0.95-0.94 2.21-1.46 3.54-1.46m0-3c-2.05 0-4.09 0.78-5.66 2.34l-16.97 16.97c-3.12 3.12-3.12 8.19 0 11.31l16.97 16.97c1.56 1.56 3.61 2.34 5.66 2.34s4.09-0.78 5.66-2.34l10.22-10.22c1.17-1.17 1.49-2.92 0.83-4.44-1.08-2.43-1.68-5.12-1.68-7.96s0.6-5.53 1.67-7.97c0.66-1.51 0.34-3.27-0.83-4.44l-10.21-10.22c-1.56-1.56-3.61-2.34-5.66-2.34z" fill="#424242"/></g><g opacity=".2"><path d="m73.59 84.99c0.26 0 0.51 0.1 0.7 0.29l10.22 10.22c0.94 0.94 1.46 2.2 1.46 3.54s-0.52 2.59-1.46 3.54l-16.97 16.97c-0.94 0.94-2.2 1.46-3.54 1.46s-2.59-0.52-3.54-1.46l-16.97-16.97c-0.94-0.94-1.46-2.2-1.46-3.54s0.52-2.59 1.46-3.54l10.22-10.22c0.19-0.19 0.43-0.29 0.7-0.29 0.14 0 0.28 0.03 0.41 0.09 2.91 1.28 6 1.93 9.18 1.93s6.27-0.65 9.18-1.93c0.13-0.06 0.27-0.09 0.41-0.09m0-3c-0.55 0-1.1 0.11-1.62 0.34-2.44 1.07-5.13 1.67-7.97 1.67s-5.53-0.6-7.97-1.67c-0.52-0.23-1.07-0.34-1.62-0.34-1.04 0-2.06 0.4-2.82 1.17l-10.22 10.21c-3.12 3.12-3.12 8.19 0 11.31l16.97 16.97c1.56 1.56 3.61 2.34 5.66 2.34s4.09-0.78 5.66-2.34l16.97-16.97c3.12-3.12 3.12-8.19 0-11.31l-10.22-10.22c-0.77-0.76-1.78-1.16-2.82-1.16z" fill="#424242"/></g><g opacity=".2"><path d="m64 51c7.17 0 13 5.83 13 13s-5.83 13-13 13-13-5.83-13-13 5.83-13 13-13m0-3c-8.84 0-16 7.16-16 16s7.16 16 16 16 16-7.16 16-16-7.16-16-16-16z" fill="#424242"/></g></svg>

<svg width="128" height="128" style="enable-background:new 0 0 128 128;" xmlns="http://www.w3.org/2000/svg" xmlns:xlink="http://www.w3.org/1999/xlink">
  <g>
    <linearGradient id="SVGID_1_" gradientUnits="userSpaceOnUse" x1="64" x2="64" y1="4.3333" y2="124.4311">
      <stop offset="0" style="stop-color:#80D8FF"/>
      <stop offset="0.5888" style="stop-color:#36C1FF"/>
      <stop offset="0.9954" style="stop-color:#00B0FF"/>
    </linearGradient>
    <path d="M76.41,44.85l10.22-10.22c3.12-3.12,3.12-8.19,0-11.31L69.66,6.34 c-3.12-3.12-8.19-3.12-11.31,0L41.37,23.31c-3.12,3.12-3.12,8.19,0,11.31l10.22,10.22c1.17,1.17,2.92,1.49,4.44,0.83 C58.47,44.6,61.16,44,64,44s5.53,0.6,7.97,1.67C73.48,46.34,75.24,46.01,76.41,44.85z" style="fill:url(#SVGID_1_);"/>
    <linearGradient id="SVGID_2_" gradientUnits="userSpaceOnUse" x1="102.9934" x2="102.9934" y1="4.3333" y2="124.4311">
      <stop offset="0" style="stop-color:#80D8FF"/>
      <stop offset="0.5888" style="stop-color:#36C1FF"/>
      <stop offset="0.9954" style="stop-color:#00B0FF"/>
    </linearGradient>
    <path d="M121.66,58.34l-16.97-16.97c-3.12-3.12-8.19-3.12-11.31,0L83.15,51.59 c-1.17,1.17-1.49,2.92-0.83,4.44C83.4,58.47,84,61.16,84,64c0,2.84-0.6,5.53-1.67,7.97c-0.66,1.51-0.34,3.27,0.83,4.44l10.22,10.22 c3.12,3.12,8.19,3.12,11.31,0l16.97-16.97C124.78,66.53,124.78,61.47,121.66,58.34z" style="fill:url(#SVGID_2_);"/>
    <linearGradient id="SVGID_3_" gradientUnits="userSpaceOnUse" x1="25.0066" x2="25.0066" y1="4.3333" y2="124.4311">
      <stop offset="0" style="stop-color:#80D8FF"/>
      <stop offset="0.5888" style="stop-color:#36C1FF"/>
      <stop offset="0.9954" style="stop-color:#00B0FF"/>
    </linearGradient>
    <path d="M44.85,51.59L34.63,41.37c-3.12-3.12-8.19-3.12-11.31,0L6.34,58.34 c-3.12,3.12-3.12,8.19,0,11.31l16.97,16.97c3.12,3.12,8.19,3.12,11.31,0l10.22-10.22c1.17-1.17,1.49-2.92,0.83-4.44 C44.6,69.53,44,66.84,44,64c0-2.84,0.6-5.53,1.67-7.97C46.34,54.52,46.01,52.76,44.85,51.59z" style="fill:url(#SVGID_3_);"/>
    <linearGradient id="SVGID_4_" gradientUnits="userSpaceOnUse" x1="64" x2="64" y1="4.3333" y2="124.4311">
      <stop offset="0" style="stop-color:#80D8FF"/>
      <stop offset="0.5888" style="stop-color:#36C1FF"/>
      <stop offset="0.9954" style="stop-color:#00B0FF"/>
    </linearGradient>
    <path d="M51.59,83.15L41.37,93.37c-3.12,3.12-3.12,8.19,0,11.31l16.97,16.97 c3.12,3.12,8.19,3.12,11.31,0l16.97-16.97c3.12-3.12,3.12-8.19,0-11.31L76.41,83.15c-1.17-1.17-2.92-1.49-4.44-0.83 C69.53,83.4,66.84,84,64,84c-2.84,0-5.53-0.6-7.97-1.67C54.52,81.66,52.76,81.99,51.59,83.15z" style="fill:url(#SVGID_4_);"/>
    <linearGradient id="SVGID_5_" gradientUnits="userSpaceOnUse" x1="64" x2="64" y1="48.8333" y2="81.8439">
      <stop offset="0" style="stop-color:#42A5F5"/>
      <stop offset="1" style="stop-color:#1976D2"/>
    </linearGradient>
    <circle cx="64" cy="64" r="16" style="fill:url(#SVGID_5_);"/>
    <g style="opacity:0.2;">
      <path d="M64,7c1.34,0,2.59,0.52,3.54,1.46l16.97,16.97c0.94,0.94,1.46,2.2,1.46,3.54s-0.52,2.59-1.46,3.54 L74.29,42.73c-0.19,0.19-0.43,0.29-0.7,0.29c-0.14,0-0.28-0.03-0.41-0.09C70.27,41.65,67.18,41,64,41c-3.18,0-6.27,0.65-9.18,1.93 c-0.13,0.06-0.27,0.09-0.41,0.09c-0.26,0-0.51-0.1-0.7-0.29L43.49,32.51c-1.95-1.95-1.95-5.12,0-7.07L60.46,8.46 C61.41,7.52,62.66,7,64,7 M64,4c-2.05,0-4.09,0.78-5.66,2.34L41.37,23.31c-3.12,3.12-3.12,8.19,0,11.31l10.22,10.22 c0.76,0.76,1.78,1.17,2.82,1.17c0.55,0,1.1-0.11,1.62-0.34C58.47,44.6,61.16,44,64,44s5.53,0.6,7.97,1.67 c0.52,0.23,1.07,0.34,1.62,0.34c1.04,0,2.06-0.4,2.82-1.17l10.22-10.22c3.12-3.12,3.12-8.19,0-11.31L69.66,6.34 C68.09,4.78,66.05,4,64,4L64,4z" style="fill:#424242;"/>
    </g>
    <g style="opacity:0.2;">
      <path d="M99.03,42.03c1.34,0,2.59,0.52,3.54,1.46l16.97,16.97c0.94,0.94,1.46,2.2,1.46,3.54 c0,1.34-0.52,2.59-1.46,3.54l-16.97,16.97c-0.94,0.94-2.2,1.46-3.54,1.46c-1.34,0-2.59-0.52-3.54-1.46L85.27,74.29 c-0.29-0.29-0.37-0.73-0.2-1.11c1.28-2.91,1.93-6,1.93-9.18c0-3.18-0.65-6.27-1.93-9.18c-0.17-0.38-0.09-0.82,0.2-1.11 l10.22-10.22C96.44,42.55,97.69,42.03,99.03,42.03 M99.03,39.03c-2.05,0-4.09,0.78-5.66,2.34L83.15,51.59 c-1.17,1.17-1.49,2.92-0.83,4.44C83.4,58.47,84,61.16,84,64s-0.6,5.53-1.67,7.97c-0.66,1.51-0.34,3.27,0.83,4.44l10.22,10.22 c1.56,1.56,3.61,2.34,5.66,2.34c2.05,0,4.09-0.78,5.66-2.34l16.97-16.97c3.12-3.12,3.12-8.19,0-11.31l-16.97-16.97 C103.12,39.81,101.08,39.03,99.03,39.03L99.03,39.03z" style="fill:#424242;"/>
    </g>
    <g style="opacity:0.2;">
      <path d="M28.97,42.03c1.34,0,2.59,0.52,3.54,1.46l10.22,10.22c0.29,0.29,0.37,0.73,0.2,1.11 C41.65,57.73,41,60.82,41,64c0,3.18,0.65,6.27,1.93,9.18c0.17,0.38,0.09,0.82-0.2,1.11L32.51,84.51c-0.94,0.94-2.2,1.46-3.54,1.46 c-1.34,0-2.59-0.52-3.54-1.46L8.46,67.54C7.52,66.59,7,65.34,7,64c0-1.34,0.52-2.59,1.46-3.54l16.97-16.97 C26.38,42.55,27.64,42.03,28.97,42.03 M28.97,39.03c-2.05,0-4.09,0.78-5.66,2.34L6.34,58.34c-3.12,3.12-3.12,8.19,0,11.31 l16.97,16.97c1.56,1.56,3.61,2.34,5.66,2.34c2.05,0,4.09-0.78,5.66-2.34l10.22-10.22c1.17-1.17,1.49-2.92,0.83-4.44 C44.6,69.53,44,66.84,44,64c0-2.84,0.6-5.53,1.67-7.97c0.66-1.51,0.34-3.27-0.83-4.44L34.63,41.37 C33.07,39.81,31.02,39.03,28.97,39.03L28.97,39.03z" style="fill:#424242;"/>
    </g>
    <g style="opacity:0.2;">
      <path d="M73.59,84.99c0.26,0,0.51,0.1,0.7,0.29l10.22,10.22c0.94,0.94,1.46,2.2,1.46,3.54 c0,1.34-0.52,2.59-1.46,3.54l-16.97,16.97c-0.94,0.94-2.2,1.46-3.54,1.46s-2.59-0.52-3.54-1.46l-16.97-16.97 c-0.94-0.94-1.46-2.2-1.46-3.54c0-1.34,0.52-2.59,1.46-3.54l10.22-10.22c0.19-0.19,0.43-0.29,0.7-0.29c0.14,0,0.28,0.03,0.41,0.09 c2.91,1.28,6,1.93,9.18,1.93c3.18,0,6.27-0.65,9.18-1.93C73.31,85.02,73.45,84.99,73.59,84.99L73.59,84.99 M73.59,81.99 c-0.55,0-1.1,0.11-1.62,0.34C69.53,83.4,66.84,84,64,84c-2.84,0-5.53-0.6-7.97-1.67c-0.52-0.23-1.07-0.34-1.62-0.34 c-1.04,0-2.06,0.4-2.82,1.17L41.37,93.37c-3.12,3.12-3.12,8.19,0,11.31l16.97,16.97c1.56,1.56,3.61,2.34,5.66,2.34 s4.09-0.78,5.66-2.34l16.97-16.97c3.12-3.12,3.12-8.19,0-11.31L76.41,83.15C75.64,82.39,74.63,81.99,73.59,81.99L73.59,81.99z" style="fill:#424242;"/>
    </g>
    <g style="opacity:0.2;">
      <path d="M64,51c7.17,0,13,5.83,13,13s-5.83,13-13,13s-13-5.83-13-13S56.83,51,64,51 M64,48 c-8.84,0-16,7.16-16,16s7.16,16,16,16s16-7.16,16-16S72.84,48,64,48L64,48z" style="fill:#424242;"/>
    </g>
  </g>
</svg>
